X: 63
T:Fasten the Legging
R:Jig
M:6/8
L:1/8
K:G
c|B2 BBAB|GBd gdB|ABAAGA|Bee dBA|B2BBAB|GBd gfg|efg eag|fdd d2:|
f|gag fgf| ege dBA|GFG AGA|
% Output from ABC2Win  Version 2.1 f on 21/01/2001
